/* XPM */
static char *Back_processed1720494251[] = {
/* columns rows colors chars-per-pixel */
"32 32 164 2 ",
"   c #1E1D1A",
".  c #221B17",
"X  c #23251B",
"o  c #2B271F",
"O  c #202323",
"+  c #232726",
"@  c #2D2520",
"#  c #2A2B21",
"$  c #292A27",
"%  c #2A2E2F",
"&  c #362722",
"*  c #332724",
"=  c #352E27",
"-  c #3B2D27",
";  c #312C28",
":  c #37312D",
">  c #3D312B",
",  c #3E312D",
"<  c #3B342C",
"1  c #2B3335",
"2  c #383732",
"3  c #3D3831",
"4  c #3B3E30",
"5  c #343939",
"6  c #393C3A",
"7  c #402F29",
"8  c #40302B",
"9  c #43362F",
"0  c #49352F",
"q  c #4B3731",
"w  c #483732",
"e  c #433A32",
"r  c #433E33",
"t  c #473C35",
"y  c #453E34",
"u  c #453E37",
"i  c #4B3832",
"p  c #503A35",
"a  c #533D37",
"s  c #543E38",
"d  c #3F4234",
"f  c #474135",
"g  c #48443A",
"h  c #424B39",
"j  c #42483B",
"k  c #444C3B",
"l  c #464D3C",
"z  c #4B4D3D",
"x  c #50433B",
"c  c #55403A",
"v  c #57403B",
"b  c #53443C",
"n  c #5A423D",
"m  c #5B443E",
"M  c #5D453F",
"N  c #425639",
"B  c #435A3E",
"V  c #46583C",
"C  c #436A3F",
"Z  c #3C444A",
"A  c #4B4E40",
"S  c #4D4E47",
"D  c #42494A",
"F  c #5F4741",
"G  c #554D41",
"H  c #4B5541",
"J  c #475F43",
"K  c #495E42",
"L  c #495947",
"P  c #4A514B",
"I  c #525242",
"U  c #595244",
"Y  c #545A4A",
"T  c #545C4A",
"R  c #595D4A",
"E  c #5F5C4B",
"W  c #59584F",
"Q  c #424D53",
"!  c #425057",
"~  c #45535B",
"^  c #48555C",
"/  c #48575E",
"(  c #555F56",
")  c #614943",
"_  c #634B45",
"`  c #65524B",
"'  c #6D574F",
"]  c #4E6442",
"[  c #456940",
"{  c #476C43",
"}  c #4B6947",
"|  c #53644E",
" . c #54694E",
".. c #50704A",
"X. c #5F6550",
"o. c #5B7455",
"O. c #547F51",
"+. c #5A7C56",
"@. c #5C7B58",
"#. c #636250",
"$. c #646D56",
"%. c #736057",
"&. c #667259",
"*. c #68745A",
"=. c #6B795D",
"-. c #4B5860",
";. c #666D60",
":. c #647661",
">. c #677D66",
",. c #6E7E61",
"<. c #667569",
"1. c #6D7E68",
"2. c #6C7A6E",
"3. c #707F63",
"4. c #6E7C72",
"5. c #827366",
"6. c #897265",
"7. c #498B49",
"8. c #469946",
"9. c #479947",
"0. c #479A47",
"q. c #4A964A",
"w. c #4B964B",
"e. c #4D954C",
"r. c #489948",
"t. c #489A48",
"y. c #4B994B",
"u. c #4D984D",
"i. c #4D9C4D",
"p. c #548353",
"a. c #558652",
"s. c #5C8159",
"d. c #5A8E5A",
"f. c #559053",
"g. c #549153",
"h. c #539752",
"j. c #549753",
"k. c #579255",
"l. c #559454",
"z. c #509A50",
"x. c #549A53",
"c. c #579957",
"v. c #559E55",
"b. c #599659",
"n. c #5B945A",
"m. c #5E915C",
"M. c #5B985A",
"N. c #5D9D5C",
"B. c #60835E",
"V. c #61915F",
"C. c #708063",
"Z. c #728164",
"A. c #738365",
"S. c #758368",
"D. c #758569",
"F. c #79886C",
"G. c #7B8A6E",
"H. c #629161",
"J. c #659564",
"K. c #629A61",
"L. c #6E9B6D",
"P. c #71936F",
"I. c #7B947B",
"U. c #65A464",
/* pixels */
"8.8.8.8.8.8.8.8.8.8.8.8.8.8.8.8.8.8.8.8.8.8.8.8.8.8.8.8.8.8.8.8.",
"8.8.8.8.8.8.8.8.8.8.8.8.8.8.8.8.8.8.8.8.8.8.8.8.8.8.8.8.8.8.8.8.",
"8.8.8.8.8.8.8.8.8.8.8.8.8.8.8.8.8.8.8.8.8.8.8.8.8.8.8.8.8.8.8.8.",
"8.8.8.8.8.8.8.8.8.8.8.8.8.8.8.8.8.8.8.8.8.8.8.8.8.8.8.8.8.8.8.8.",
"8.8.8.8.8.8.8.8.8.8.8.8.8.h.h.z.n.H.r.r.r.8.8.8.8.8.8.8.8.8.8.8.",
"8.8.8.8.8.8.8.8.8.8.8.8.n.Y W ;., u  .{ f.8.8.8.8.8.8.8.8.8.8.8.",
"8.8.8.8.8.8.8.8.8.8.8.K.z i 0 7 v s , * T u.r.8.8.8.8.8.8.8.8.8.",
"8.8.8.8.8.8.8.8.8.8.M.f n ) ) ) ) F F - 1.r.8.8.8.8.8.8.8.8.8.8.",
"8.8.8.8.8.8.8.8.8.l.l q _ _ _ _ ) n a n 3 J.8.8.8.8.8.8.8.8.8.8.",
"8.8.8.8.8.8.8.8.r.a.r s ) ) ) _ ) M ) ) 9 @.y.8.8.8.8.8.8.8.8.8.",
"8.8.8.8.8.8.8.8.8.c.k c ) F M n ) ) _ F > +.y.8.8.8.8.8.8.8.8.8.",
"8.8.8.8.8.8.8.8.r.s.t s ) ) c M ) ) _ n ; V.t.8.8.8.8.8.8.8.8.8.",
"8.8.8.8.8.8.8.8.r.x.h p n ) ) ) _ ) ) n q | x.8.8.8.8.8.8.8.8.8.",
"8.8.8.8.8.8.8.8.r.r.[ 9 a F _ ) _ ) M i H f.8.8.8.8.8.8.8.8.8.8.",
"8.8.8.8.8.8.8.8.8.8.e...> n M M m c w Y x.8.8.8.8.8.8.8.8.8.8.8.",
"8.8.8.8.8.8.8.8.8.8.r.| < G U #.E b f S i.8.8.8.8.8.8.8.8.8.8.8.",
"8.8.8.8.8.8.8.8.8.8.z.X 9 I &.,.=.R y . P.r.t.8.8.8.8.8.8.8.8.8.",
"8.8.8.8.8.8.8.8.8.u.} : > I 3.D.A.X.e : H c.8.8.8.8.8.8.8.8.8.8.",
"8.8.8.8.8.8.8.8.8.f.j u A X.S.G.G.$.z g : s.t.8.8.8.8.8.8.8.8.8.",
"8.8.8.8.8.8.8.8.u.o.` ` # X.3.A.3.*.4 g %.W f.8.8.8.8.8.8.8.8.8.",
"8.8.8.8.8.8.8.8.r.H.5.' . P <.4.2.( $ c 6.D.v.8.8.8.8.8.8.8.8.8.",
"8.8.8.8.8.8.8.8.t.i.p. .O ~ -./ / ^ 1 L ..N.8.8.8.8.8.8.8.8.8.8.",
"8.8.8.8.8.8.8.8.8.8.8.v.+ ! Q D Q ~ 1 d.t.t.8.8.8.8.8.8.8.8.8.8.",
"8.8.8.8.8.8.8.8.8.8.8.y.+ Z 5 I.6 D % 7.t.8.8.8.8.8.8.8.8.8.8.8.",
"8.8.8.8.8.8.8.8.8.8.8.g.o * $ L.2 * @ O.9.8.8.8.8.8.8.8.8.8.8.8.",
"8.8.8.8.8.8.8.8.8.8.8.[ ] V B n.J N ] K e.8.8.8.8.8.8.8.8.8.8.8.",
"8.8.8.8.8.8.8.8.8.8.8.q.t.9.w.9.q.q.t.e.t.8.8.8.8.8.8.8.8.8.8.8.",
"8.8.8.8.8.8.8.8.8.8.8.8.8.8.9.8.8.8.8.8.8.8.8.8.8.8.8.8.8.8.8.8.",
"8.8.8.8.8.8.8.8.8.8.8.8.8.8.8.8.8.8.8.8.8.8.8.8.8.8.8.8.8.8.8.8.",
"8.8.8.8.8.8.8.8.8.8.8.8.8.8.8.8.8.8.8.8.8.8.8.8.8.8.8.8.8.8.8.8.",
"8.8.8.8.8.8.8.8.8.8.8.8.8.8.t.9.8.8.8.8.8.8.8.8.8.8.8.8.8.8.8.8.",
"8.8.8.8.8.8.8.8.8.8.8.8.8.g.:.>.U.n.8.8.8.8.8.8.8.8.8.8.8.8.8.8."
};
