/* XPM */
static char *safeimagekit_Coin_Silver_Sheet_processed1720493506[] = {
/* columns rows colors chars-per-pixel */
"32 32 116 2 ",
"   c #4E534E",
".  c #50504E",
"X  c #525353",
"o  c #545A55",
"O  c #5A5F5C",
"+  c #4D654B",
"@  c #4C6C4C",
"#  c #4C724C",
"$  c #497D48",
"%  c #4F6D51",
"&  c #536D54",
"*  c #576159",
"=  c #5A615C",
"-  c #566D58",
";  c #5B6C5D",
":  c #537154",
">  c #567A56",
",  c #567159",
"<  c #5C735F",
"1  c #5F6561",
"2  c #5D7962",
"3  c #616B63",
"4  c #6C6D6D",
"5  c #617B64",
"6  c #6A746C",
"7  c #6B796A",
"8  c #6C6D71",
"9  c #717274",
"0  c #727A74",
"q  c #75757D",
"w  c #76787E",
"e  c #7A7B7E",
"r  c #478146",
"t  c #488547",
"y  c #478E46",
"u  c #488B47",
"i  c #478448",
"p  c #498449",
"a  c #488C49",
"s  c #479545",
"d  c #499447",
"f  c #469947",
"g  c #479348",
"h  c #4C954B",
"j  c #469949",
"k  c #499849",
"l  c #51944F",
"z  c #528751",
"x  c #528D52",
"c  c #5E825E",
"v  c #5B8D5C",
"b  c #549253",
"n  c #5A9158",
"m  c #668B66",
"M  c #6A856B",
"N  c #669666",
"B  c #738475",
"V  c #728B73",
"C  c #768E78",
"Z  c #7B8D7D",
"A  c #789277",
"S  c #7C947C",
"D  c #7C7D82",
"F  c #7F8084",
"G  c #7F8289",
"H  c #828386",
"J  c #848B85",
"K  c #84868B",
"L  c #86888D",
"P  c #8A8B8E",
"I  c #8A9A8C",
"U  c #868992",
"Y  c #8C8D93",
"T  c #8C8F98",
"R  c #8F9095",
"E  c #8E919A",
"W  c #929295",
"Q  c #969897",
"!  c #93959B",
"~  c #96989D",
"^  c #9A9B9D",
"/  c #9BA29B",
"(  c #9396A0",
")  c #9699A2",
"_  c #9C9DA2",
"`  c #9C9FA8",
"'  c #9FA1A4",
"]  c #9FA2A9",
"[  c #A1A2A5",
"{  c #A5A5AA",
"}  c #A8A7AC",
"|  c #A7A8AC",
" . c #A9AAAD",
".. c #ACACB2",
"X. c #AEAEB8",
"o. c #B0AFB4",
"O. c #AFB0B2",
"+. c #B2B3B5",
"@. c #B5B6B9",
"#. c #B7B8BB",
"$. c #BBBCBD",
"%. c #BEC0BF",
"&. c #BDBEC1",
"*. c #BEC1C1",
"=. c #C3C3C4",
"-. c #C6C8C7",
";. c #C8C8C6",
":. c #C6C6C8",
">. c #C7C9C8",
",. c #CCCCCC",
"<. c #D0CECF",
"1. c #CED0CF",
"2. c #CFCDD0",
"3. c #D1CFD0",
"4. c #D1D1D2",
"5. c #DDDCDC",
/* pixels */
"f f f f f f f f f f f f d y u d u d h l k k f s f f f f f f f f ",
"f f f f f f f f f y t r @ & - , < V S A N n x u f f f f f f f f ",
"f f f f f f f k t # & - * 0 H H P /  .[ I S M @ p s f f f j j f ",
"f f f f f s y i + * 4 F F ' @.#.=.-.;.;.+. .J o @ i y f f f f f ",
"f f f f f u #     9 _ ;.,.:.,.3.,.4.1.3.3.1. .4 X . @ k f s f f ",
"f f f f u @ = 9 D [ $.=.&...{ } | { [ ) @.%.%. .K 9 = & b j f f ",
"f f f s @ ; e '  .o.o.@.o.} } } [ ) ! E ~ [ .... .[ L 0 m b f f ",
"f f g p   8 Q $.@.} { } } ..........[ ( R E ~ [ $.%. .P 7 z j f ",
"f s p + o F } $.Q _ ....X...} { X.=.&.( ( ( ! ( O.=.$.Q 1 & i f ",
"f a @ o q } +.^ } .........._ K } ,.#.U ( ) ] ..{ @.=.#.e O @ y ",
"s p & 8 } %.@.{ } X...} [ o.X.{ #.:.=.@...@.+.X./ [ +.=.} F 2 g ",
"s $ - w &.=.@...X...] ! } @.&.&.&.&.=.>.=.>.#.` ~ W { :.$.^ Z N ",
"g # 3 L =.&.X.} ..} ( G ] } } @.....@.=.&.*. .K W U ^ $.=.+./ I ",
"y , D #.,.+.{ ..X.` K 9 D D D D D T _ _ _ P D q K R ~ ' >.=.O.^ ",
"g 5 R *.<.+.{ ..` E G q 9 q G { =.-.-.=. .U q D U ` [ ' ;.=.O./ ",
"g M Q :.<. .) [ ( U D q D G } =.>.,.>.=.o.Y D K _ } { [ ,.%.O.^ ",
"l V _ =.,.[ R ( T D D D G } *.:...&.-.#.[ W Y ( } ..{ _ >.&.{ Q ",
"h C ^ %.:._ U ( D D H Q ~ :.>...! o.=.+.Q ! _ ..X.X.} ' >.&.[ H ",
"h C Q $.-._ U W D D K [ { -.>.O._ +.=.#.@.} } ..X.X.{ ' ;.$.^ H ",
"h c 0 L $.o.~ Y D D W  ._ =.5.2.#.=.>.-.:...[ [ ..} X.%.;.{ J V ",
"f p ; q $.%. .Q ( E W _ K &.5.5.4.4.,.,.,.+._ _  . .@.<.=.^ B v ",
"k u : 4  .$.@.{ { _ T K D } 2.5.5.4.-.:.-.o._ _ } o.%.,.+.J 5 u ",
"k p @ o q  .%....._ K D w H } 5.5.&.....+.{ ^ _ } @.=.=.P 3 @ y ",
"f s t + = W #.=.! T U K E W ' #.4.4.3.2.$...|  .+.=.+.F = % t f ",
"f f k p 6 P  .%.@.' ^ ~ _ ' [ ..&.&.&.#.o. ...+.=.&.^ 4 o $ g f ",
"f f j k M B P [ @.+.o.+.o.} [ [ { | | ..+.#.$.#.+.' e O # y f f ",
"f f f f l : 3 e Q @.;.;.=.+.}  .} } ..+.=.;.:. .K 4 O + p s f f ",
"j k f f f u > 4 e Q +.<.<.<.<.<.2.,.,.3.3.>.| 8 X . @ s j f f f ",
"f f f f f f d x m H W / / @.=.%.:.=.$. .R H 9 o @ p s j f f f f ",
"f f f f f f k d b m V C J Q [ [ ' Q P e 3 , : @ i s f f f j f f ",
"k f f f f f f f f l n b m V C C C M < : # $ i p f f f f f f f f ",
"f f f f f f f k f f s f l h l h l g a d s f f f f f f f f f f f "
};
