/* XPM */
static char *safeimagekit_Front_processed__1_17204929341720493631[] = {
/* columns rows colors chars-per-pixel */
"32 32 129 2 ",
"   c #161513",
".  c #261C19",
"X  c #232019",
"o  c #2D261E",
"O  c #262625",
"+  c #342D27",
"@  c #382B25",
"#  c #372C2A",
"$  c #382D29",
"%  c #35322B",
"&  c #3E342A",
"*  c #3B3B2E",
"=  c #292E31",
"-  c #2A3537",
";  c #2A3338",
":  c #323433",
">  c #3E3C32",
",  c #343D3A",
"<  c #43332B",
"1  c #48352F",
"2  c #423731",
"3  c #4C3630",
"4  c #433B33",
"5  c #4A3D36",
"6  c #4E3F38",
"7  c #533C36",
"8  c #583F39",
"9  c #3E4533",
"0  c #3B4B35",
"q  c #454134",
"w  c #4C4136",
"e  c #40463A",
"r  c #4B443A",
"t  c #4D4A3D",
"y  c #57403A",
"u  c #5B423D",
"i  c #60453E",
"p  c #42663A",
"a  c #333E42",
"s  c #3A454B",
"d  c #444C4F",
"f  c #4F4F4D",
"g  c #5E4540",
"h  c #4F5440",
"j  c #54534E",
"k  c #525F4B",
"l  c #5C5E4D",
"z  c #434C51",
"x  c #425157",
"c  c #47565D",
"v  c #4C535B",
"b  c #575B5C",
"n  c #634A43",
"m  c #6C4C45",
"M  c #63564E",
"N  c #6F544D",
"B  c #60584B",
"V  c #72544C",
"C  c #765A50",
"Z  c #7A5B52",
"A  c #4C6346",
"S  c #53624D",
"D  c #4C7847",
"F  c #4E7E4C",
"G  c #537E4E",
"H  c #5D6252",
"J  c #566850",
"K  c #5B6A57",
"L  c #567553",
"P  c #5B7453",
"I  c #5A7A55",
"U  c #5F745A",
"Y  c #646E56",
"T  c #6F6B5E",
"R  c #627D5C",
"E  c #4E5D64",
"W  c #505E65",
"Q  c #5E6263",
"!  c gray38",
"~  c #656A6D",
"^  c #727F6B",
"/  c #8C645A",
"(  c #886A5F",
")  c #966A61",
"_  c #8C7A66",
"`  c #957369",
"'  c #9C7B6E",
"]  c #9D7C71",
"[  c #A87C73",
"{  c #4C864A",
"}  c #469144",
"|  c #489046",
" . c #449944",
".. c #489C47",
"X. c #4B964B",
"o. c #479A48",
"O. c #4A9A4A",
"+. c #51944F",
"@. c #578653",
"#. c #598054",
"$. c #558D54",
"%. c #5C835A",
"&. c #5C8E59",
"*. c #539B52",
"=. c #5E9F5D",
"-. c #63965E",
";. c #668262",
":. c #7F957E",
">. c #938272",
",. c #A98579",
"<. c #B38C7D",
"1. c #B38D80",
"2. c #A99687",
"3. c #A79B8F",
"4. c #B79184",
"5. c #A0A29F",
"6. c #B4A495",
"7. c #B4A997",
"8. c #BAAD9D",
"9. c #A8A8A6",
"0. c #C29B8C",
"q. c #D0A595",
"w. c #D4AA98",
"e. c #DBAF9D",
"r. c #C6B19C",
"t. c #CEBDAB",
"y. c #E3B6A3",
"u. c #D4C4B4",
"i. c #DACABA",
/* pixels */
" . . . . . . . . . . . . . . . . . . . . . . . . . . . . . . . .",
" . . . . . . . . . . . . . . . . . . . . .o. . . . . . . . . . .",
" . . . . . . . . . . . . . . . . . . . . . . . . . . . . . . . .",
" . . . . . . . . . . . . . . . . . . . . . . . . . . . . . . . .",
" . . . . . . . . . . . . .O.X.o.O.O. . . . . . . . . . . . . . .",
" . . . . . . . . . .*.{ @.J H @.%.P X. . . . . . . . . . . . . .",
" . . . . . . . . .*.P 4 4 1 3 2 2 w U O. . . . . . . . . . . . .",
" . . . . . . . . .*.J < 7 u i 7 8 u 6 ^  . . . . . . . . . . . .",
" . . . . . . . . .*.H 7 n n n n n n g < ;. . . . . . . . . . . .",
" . . . . . . . . .G 5 u n n u n n n g 3 * &. . . . . . . . . . .",
" . . . . . . . .X.P < y V ` C Z ] V n y * +. . . . . . . . . . .",
" . . . . . . . . .{ 2 y ' <.<.] 4.( m u 9 *. . . . . . . . . . .",
" . . . . . . . . .G 5 m [ C 4.e.,.N / u w F  . . . . . . . . . .",
" . . . . . . . . .L w m [ ,.q.y.0.,.) 7 0 o. . . . . . . . . . .",
" . . . . . . . . .X.P 5 V 1.e.y.w.] u t {  . . . . . . . . . . .",
" . . . . . . . . . .*.S < u 4.w.] < 2 $. . . . . . . . . . . . .",
" . . . . . . . . . .@.@ t B 2.r.>.t 4 e  . . . . . . . . . . . .",
" . . . . . . . . .X.A o l ~ 8.u.2.k r + {  . . . . . . . . . . .",
" . . . . . . . . .{ 4 @ l T 7.i.3.l t $ 0  . . . . . . . . . . .",
" . . . . . . . .X.S 2 o & M 6.t.3.5 o & > D  . . . . . . . . . .",
" . . . . . . . .} Y ` 7 . 2 Q ~ b # X T _ p  . . . . . . . . . .",
" . . . . . . . . .-.Y % = v E E W z O h Y =... . . . . . . . . .",
" . . . . . . . . .O.=.K ; E c s Q E - $.O. . . . . . . . . . . .",
" . . . . . . . . .o...U - x d ! a s , } .. . . . . . . . . . . .",
" . . . . . . . . . .O.Y O : f 9.  : : |  . . . . . . . . . . . .",
" . . . . . . . . . .*.k q & j 5.X > r I  . . . . . . . . . . . .",
" . . . . . . . . . .X.{ @.G %.:.L R ;.#. . . . . . . . . . . . .",
" . . . . . . . . . . . .o.o.O.O.X.O..... . . . . . . . . . . . .",
" . . . . . . . . . . . . . . . ... . . . . . . . . . . . . . . .",
" . . . . . . . . . . . . . . . . . . . . . . . . . . . . . . . .",
" . . . . . . . . . . . . . . . . . . . . . . . . . . . . . . . .",
" . . . . . . . . . . . . . . . . . . . . . . . . . . . . . . . ."
};
