/* XPM */
static char *Left_processed1720494251[] = {
/* columns rows colors chars-per-pixel */
"32 32 175 2 ",
"   c #262C1F",
".  c #2A2721",
"X  c #2E2922",
"o  c #2F2D25",
"O  c #282C29",
"+  c #352B25",
"@  c #372F29",
"#  c #3B2F2A",
"$  c #3D2F2A",
"%  c #2C3325",
"&  c #2E3927",
"*  c #2A342C",
"=  c #353228",
"-  c #3A322D",
";  c #3F332D",
":  c #3B372D",
">  c #3C342C",
",  c #3C352E",
"<  c #33392B",
"1  c #393A2C",
"2  c #383B2F",
"3  c #45332E",
"4  c #43342F",
"5  c #423632",
"6  c #463530",
"7  c #493731",
"8  c #453A36",
"9  c #4E3935",
"0  c #4D3B36",
"q  c #513C37",
"w  c #543D37",
"e  c #543E38",
"r  c #553E39",
"t  c #3F4134",
"y  c #3E4837",
"u  c #3C5535",
"i  c #3B5C36",
"p  c #3D5738",
"a  c #4D4037",
"s  c #494339",
"d  c #4E443C",
"f  c #444839",
"g  c #464B3C",
"h  c #4A493D",
"j  c #51463C",
"k  c #56443D",
"l  c #59413B",
"z  c #5C443E",
"x  c #5C443F",
"c  c #384B43",
"v  c #394945",
"b  c #385043",
"n  c #395043",
"m  c #3A5245",
"M  c #4F4E42",
"N  c #46474A",
"B  c #5D4640",
"V  c #5F4741",
"C  c #4B5344",
"Z  c #545345",
"A  c #5B524B",
"S  c #5E5349",
"D  c #59564B",
"F  c #595D4B",
"G  c #5D5F4D",
"H  c #425652",
"J  c #4B5C5D",
"K  c #604843",
"L  c #614943",
"P  c #624A44",
"I  c #634B44",
"U  c #634B45",
"Y  c #664C44",
"T  c #664F46",
"R  c #6D4D48",
"E  c #60554B",
"W  c #6A5049",
"Q  c #665B55",
"!  c #685F56",
"~  c #7F5650",
"^  c #735A51",
"/  c #7A5D55",
"(  c #476542",
")  c #4F6347",
"_  c #4B6B41",
"`  c #4D6B49",
"'  c #57634E",
"]  c #417340",
"[  c #457542",
"{  c #4C7543",
"}  c #4C7347",
"|  c #4C7149",
" . c #4C675B",
".. c #586951",
"X. c #527653",
"o. c #557551",
"O. c #557655",
"+. c #597554",
"@. c #5A7B55",
"#. c #5C7D58",
"$. c #676651",
"%. c #616354",
"&. c #746156",
"*. c #70655C",
"=. c #75675C",
"-. c #7A6659",
";. c #6B735B",
":. c #4F5D63",
">. c #515F65",
",. c #796A60",
"<. c #7C6E66",
"1. c #81645B",
"2. c #8B6D62",
"3. c #8E6F64",
"4. c #807A6B",
"5. c #9D7B6F",
"6. c #9F7C6F",
"7. c #A57F73",
"8. c #AA7D73",
"9. c #A87E74",
"0. c #478145",
"q. c #488F47",
"w. c #4E884C",
"e. c #508B4F",
"r. c #469946",
"t. c #489148",
"y. c #4B974B",
"u. c #4C964C",
"i. c #489948",
"p. c #499949",
"a. c #489A48",
"s. c #4A9A4A",
"d. c #4C9B4C",
"f. c #4F9B4F",
"g. c #548551",
"h. c #568B53",
"j. c #5E855B",
"k. c #5F8E5E",
"l. c #529051",
"z. c #509350",
"x. c #579056",
"c. c #589357",
"v. c #529A52",
"b. c #549A53",
"n. c #519C51",
"m. c #539D53",
"M. c #559D55",
"N. c #579F57",
"B. c #5B925B",
"V. c #5A9558",
"C. c #5F965E",
"Z. c #599959",
"A. c #5E995D",
"S. c #678966",
"D. c #72816C",
"F. c #629460",
"G. c #629561",
"H. c #A68476",
"J. c #B0887B",
"K. c #B28B7F",
"L. c #B49082",
"P. c #ADA295",
"I. c #BDAA98",
"U. c #C09989",
"Y. c #C49B8D",
"T. c #C89C8E",
"R. c #C2A08F",
"E. c #C4A291",
"W. c #CEA494",
"Q. c #DAAD9D",
"!. c #C4B2A1",
"~. c #CABAA9",
"^. c #CBBAAB",
"/. c #DEB1A0",
"(. c #CFC1B0",
/* pixels */
"r.r.r.r.r.r.r.r.r.r.r.r.r.r.r.r.r.r.r.r.r.r.r.r.r.r.r.r.r.r.r.r.",
"r.r.r.r.r.r.r.r.r.r.r.r.r.r.r.r.r.r.r.r.r.r.r.r.r.r.r.r.r.r.r.r.",
"r.r.r.r.r.r.r.r.r.r.r.r.r.r.r.r.r.r.r.r.r.r.r.r.r.r.r.r.r.r.r.r.",
"r.r.r.r.r.r.r.r.r.r.r.r.r.r.r.r.r.r.r.r.r.r.r.r.r.r.r.r.r.r.r.r.",
"r.r.r.r.r.r.r.r.r.r.r.r.r.y.y.q.q.s.r.r.r.r.r.r.r.r.r.r.r.r.r.r.",
"r.r.r.r.r.r.r.r.r.r.r.n.[ ) ' s > } h.s.r.r.r.r.r.r.r.r.r.r.r.r.",
"r.r.r.r.r.r.r.r.r.r.r.} 5 0 7 q w 4 h u C.r.r.r.r.r.r.r.r.r.r.r.",
"r.r.r.r.r.r.r.r.r.r.r.F.# K K K P V 0 3 h C.r.r.r.r.r.r.r.r.r.r.",
"r.r.r.r.r.r.r.r.r.r.s.y q K K T I P V r - k.r.r.r.r.r.r.r.r.r.r.",
"r.r.r.r.r.r.r.r.r.r.w.= P T z z I P P r # @.s.r.r.r.r.r.r.r.r.r.",
"r.r.r.r.r.r.r.r.r.s.g.> / 7./ / R I K w $ +.n.r.r.r.r.r.r.r.r.r.",
"r.r.r.r.r.r.r.r.r.r.M.1 2.3.K.^ 3.W x l 3 ..v.r.r.r.r.r.r.r.r.r.",
"r.r.r.r.r.r.r.r.r.r.o.k 6.1.W.T J.9.1.r > #.s.r.r.r.r.r.r.r.r.r.",
"r.r.r.r.r.r.r.r.r.r.x.G H.Y./.U.Y.9.R 9 f c.r.r.r.r.r.r.r.r.r.r.",
"r.r.r.r.r.r.r.r.r.r.r.V.4.L.Q.Q.5.R 9 M h.s.r.r.r.r.r.r.r.r.r.r.",
"r.r.r.r.r.r.r.r.r.r.r.d.D.&.E.R.a k + j.s.r.r.r.r.r.r.r.r.r.r.r.",
"r.r.r.r.r.r.r.r.r.r.s.v.. ,.!.I.S F X j.i.r.r.r.r.r.r.r.r.r.r.r.",
"r.r.r.r.r.r.r.r.r.i.i.` - <.(.^.! %.> C Z.r.r.r.r.r.r.r.r.r.r.r.",
"r.r.r.r.r.r.r.r.r.r.v.% 8 ,.^.^.! D Z o S.s.r.r.r.r.r.r.r.r.r.r.",
"r.r.r.r.r.r.r.r.r.i.i d , *.P.P.A a ' S g B.r.r.r.r.r.r.r.r.r.r.",
"r.r.r.r.r.r.r.r.r.i.} -.@ v :.:.N 8 $.5.;.Z.r.r.r.r.r.r.r.r.r.r.",
"r.r.r.r.r.r.r.r.r.r.n.` O :.:.>.J b p ( A.i.r.r.r.r.r.r.r.r.r.r.",
"r.r.r.r.r.r.r.r.r.r.i.N.* :.m m  .m O.d.r.r.r.r.r.r.r.r.r.r.r.r.",
"r.r.r.r.r.r.r.r.r.r.r.d.* m f b  .c X.d.r.r.r.r.r.r.r.r.r.r.r.r.",
"r.r.r.r.r.r.r.r.r.r.r.u.& 2 . = t < ] s.r.r.r.r.r.r.r.r.r.r.r.r.",
"r.r.r.r.r.r.r.r.r.r.r.q.} _ u ( } _ [ i.r.r.r.r.r.r.r.r.r.r.r.r.",
"r.r.r.r.r.r.r.r.r.r.r.r.u.x.l.u.d.z.u.r.r.r.r.r.r.r.r.r.r.r.r.r.",
"r.r.r.r.r.r.r.r.r.r.r.r.u.r.r.s.r.d.i.r.r.r.r.r.r.r.r.r.r.r.r.r.",
"r.r.r.r.r.r.r.r.r.r.r.r.r.r.r.r.r.r.r.r.r.r.r.r.r.r.r.r.r.r.r.r.",
"r.r.r.r.r.r.r.r.r.r.r.r.r.r.r.r.r.r.r.r.r.r.r.r.r.r.r.r.r.r.r.r.",
"r.r.r.r.r.r.r.r.r.r.r.r.r.r.r.r.r.r.r.r.r.r.r.r.r.r.r.r.r.r.r.r.",
"r.r.r.r.r.r.r.r.r.r.r.r.r.r.r.r.r.r.r.r.r.r.r.r.r.r.r.r.r.r.r.r."
};
