/* XPM */
static char *Right_processed1720494251[] = {
/* columns rows colors chars-per-pixel */
"32 32 179 2 ",
"   c #1C1814",
".  c #211E1A",
"X  c #24281C",
"o  c #212523",
"O  c #222625",
"+  c #332927",
"@  c #312A26",
"#  c #352E29",
"$  c #3A2D29",
"%  c #3F2E29",
"&  c #3E322C",
"*  c #293033",
"=  c #3E3630",
"-  c #333B3E",
";  c #3F3E3F",
":  c #43332D",
">  c #46322D",
",  c #41372F",
"<  c #49352F",
"1  c #413530",
"2  c #473530",
"3  c #4A3732",
"4  c #473C37",
"5  c #483833",
"6  c #4A3833",
"7  c #4E3934",
"8  c #4B3D37",
"9  c #4A3D39",
"0  c #4D3D39",
"q  c #523D37",
"w  c #3B5937",
"e  c #3E5A39",
"r  c #404237",
"t  c #45443E",
"y  c #484238",
"u  c #4C403A",
"i  c #48473B",
"p  c #4A443C",
"a  c #444D39",
"s  c #434C3C",
"d  c #48493B",
"f  c #4F4B3F",
"g  c #51433C",
"h  c #59403B",
"j  c #59433D",
"k  c #5C433C",
"l  c #5B443E",
"z  c #5D453F",
"x  c #435E3D",
"c  c #40733E",
"v  c #394248",
"b  c #3E474B",
"n  c #494942",
"m  c #4F4942",
"M  c #4D4E41",
"N  c #40474A",
"B  c #5E4640",
"V  c #5F4741",
"C  c #574943",
"Z  c #574E46",
"A  c #5F4842",
"S  c #455342",
"D  c #4A5842",
"F  c #4B5E45",
"G  c #525247",
"H  c #56524E",
"J  c #58534B",
"K  c #424F56",
"L  c #4C5256",
"P  c #455259",
"I  c #585A50",
"U  c #5F5C51",
"Y  c #604842",
"T  c #634A44",
"R  c #634B45",
"E  c #644C46",
"W  c #684B45",
"Q  c #6B534B",
"!  c #73574F",
"~  c #685C51",
"^  c #725950",
"/  c #755850",
"(  c #7D5B54",
")  c #7C5E56",
"_  c #416E41",
"`  c #496944",
"'  c #4B6A47",
"]  c #496E44",
"[  c #55654E",
"{  c #437641",
"}  c #487245",
"|  c #497048",
" . c #53734E",
".. c #5E6350",
"X. c #577150",
"o. c #5A7656",
"O. c #587F55",
"+. c #5E7659",
"@. c #636753",
"#. c #63675E",
"$. c #696A5B",
"%. c #746257",
"&. c #75645C",
"*. c #63735E",
"=. c #627D5C",
"-. c #4B5960",
";. c #525C60",
":. c #525E64",
">. c #525F66",
",. c #746C63",
"<. c #7C6F60",
"1. c #816259",
"2. c #85685D",
"3. c #8E6F64",
"4. c #9E6F68",
"5. c #8C756B",
"6. c #9D796D",
"7. c #877E76",
"8. c #997D70",
"9. c #468144",
"0. c #4A8E49",
"q. c #4D8B4C",
"w. c #469946",
"e. c #479A47",
"r. c #4A974A",
"t. c #489A48",
"y. c #4A994A",
"u. c #4A9A4A",
"i. c #4B9B4B",
"p. c #4C9A4C",
"a. c #4E994E",
"s. c #4D9C4D",
"d. c #548750",
"f. c #5F8459",
"g. c #549353",
"h. c #529651",
"j. c #579155",
"k. c #579757",
"l. c #589657",
"z. c #509950",
"x. c #509C50",
"c. c #579E57",
"v. c #5B905A",
"b. c #5B975A",
"n. c #5E975C",
"m. c #599A58",
"M. c #638361",
"N. c #668B60",
"B. c #71866E",
"V. c #609D60",
"C. c #679D66",
"Z. c #6A9568",
"A. c #6C946B",
"S. c #739471",
"D. c #799577",
"F. c #799378",
"G. c #7E957B",
"H. c #7B9F7B",
"J. c #98897C",
"K. c #B1897D",
"L. c #B48C7F",
"P. c #B48E80",
"I. c #A29589",
"U. c #AD9C8A",
"Y. c #B09181",
"T. c #BB9183",
"R. c #BA9284",
"E. c #BE9788",
"W. c #A69C90",
"Q. c #BBAB9C",
"!. c #C69A8B",
"~. c #C59B8C",
"^. c #C79D8E",
"/. c #C8A694",
"(. c #DBAE9E",
"). c #DCAF9E",
"_. c #C0B2A4",
"`. c #CAB9A7",
"'. c #D6C7B7",
/* pixels */
"w.w.w.w.w.w.w.w.w.w.w.w.w.w.w.w.w.w.w.w.w.w.w.w.w.w.w.w.w.w.w.w.",
"w.w.w.w.w.w.w.w.w.w.w.w.w.w.w.w.w.w.w.w.w.w.w.w.w.w.w.w.w.w.w.w.",
"w.w.w.w.w.w.w.w.w.w.w.w.w.w.w.w.w.w.w.w.w.w.w.w.w.w.w.w.w.w.w.w.",
"w.w.w.w.w.w.w.w.w.w.w.w.w.w.w.w.w.w.w.w.w.w.w.w.w.w.w.w.w.w.w.w.",
"w.w.w.w.w.w.w.w.w.w.w.w.w.w.w.w.w.w.w.w.w.w.w.w.w.w.w.w.w.w.w.w.",
"w.w.w.w.w.w.w.w.w.w.w.w.u.0.c { z.q.u.w.w.w.w.w.w.w.w.w.w.w.w.w.",
"w.w.w.w.w.w.w.w.w.a.} w e a & 1 D d 9.w.w.w.w.w.w.w.w.w.w.w.w.w.",
"w.w.w.w.w.w.w.w.u.O., % : 7 j j 3 > ] u.w.w.w.w.w.w.w.w.w.w.w.w.",
"w.w.w.w.w.w.w.w.w.j.i q V R R R V V 4 r.w.w.w.w.w.w.w.w.w.w.w.w.",
"w.w.w.w.w.w.w.w.u. .5 A R R V l V T $ q.w.w.w.w.w.w.w.w.w.w.w.w.",
"w.w.w.w.w.w.w.w.n.M < z R E / k T z 3 F s.w.w.w.w.w.w.w.w.w.w.w.",
"w.w.w.w.w.w.w.w.h.G > z E 1.L.6.! 1.6 #.s.w.w.w.w.w.w.w.w.w.w.w.",
"w.w.w.w.w.w.w.w.a.[ > R ) K.3.R.6.) Q H s.w.w.w.w.w.w.w.w.w.w.w.",
"w.w.w.w.w.w.w.w.b.m 7 W 4.!.2.E.^.2.^ *.w.w.w.w.w.w.w.w.w.w.w.w.",
"w.w.w.w.w.w.w.w.z.X.8 h ( T.^.(.(.P.&.j.w.w.w.w.w.w.w.w.w.w.w.w.",
"w.w.w.w.w.w.w.w.w.a.=.,.3 1.~.(./.5.f.e.w.w.w.w.w.w.w.w.w.w.w.w.",
"w.w.w.w.w.w.w.w.w.w.i.M.@ Z 8./.Y.J v.u.w.w.w.w.w.w.w.w.w.w.w.w.",
"w.w.w.w.w.w.w.w.w.t.m.X y ~ J.`.U.1 ' u.w.w.w.w.w.w.w.w.w.w.w.w.",
"w.w.w.w.w.w.w.w.w.a.' @ M $.I.'.Q.u r j.w.w.w.w.w.w.w.w.w.w.w.w.",
"w.w.w.w.w.w.w.w.w.l.s y ..Z I.`._.u @ B.u.w.w.w.w.w.w.w.w.w.w.w.",
"w.w.w.w.w.w.w.w.u.+.C ~ J 4 7.W.I.9 0 = H.w.w.w.w.w.w.w.w.w.w.w.",
"w.w.w.w.w.w.w.w.u.N.<.%.w ; L >.L N g @.V.w.w.w.w.w.w.w.w.w.w.w.",
"w.w.w.w.w.w.w.w.w.a.d.o.o P >.-.>.N S l.w.w.w.w.w.w.w.w.w.w.w.w.",
"w.w.w.w.w.w.w.w.w.w.t.c.o -.-.* P N } i.w.w.w.w.w.w.w.w.w.w.w.w.",
"w.w.w.w.w.w.w.w.w.w.w.i.o K K   v - _ t.w.w.w.w.w.w.w.w.w.w.w.w.",
"w.w.w.w.w.w.w.w.w.w.w.t.. = =   + # x r.w.w.w.w.w.w.w.w.w.w.w.w.",
"w.w.w.w.w.w.w.w.w.w.w.w.n ~ I t C I I Z.i.w.w.w.w.w.w.w.w.w.w.w.",
"w.w.w.w.w.w.w.w.w.w.w.w.A.G.G.F.D.D.S.C.t.w.w.w.w.w.w.w.w.w.w.w.",
"w.w.w.w.w.w.w.w.w.w.w.w.w.w.t.w.t.w.w.w.w.w.w.w.w.w.w.w.w.w.w.w.",
"w.w.w.w.w.w.w.w.w.w.w.w.w.w.w.w.w.w.w.w.w.w.w.w.w.w.w.w.w.w.w.w.",
"w.w.w.w.w.w.w.w.w.w.w.w.w.w.w.w.w.w.w.w.w.w.w.w.w.w.w.w.w.w.w.w.",
"w.w.w.w.w.w.w.w.w.w.w.w.w.w.w.w.w.w.w.w.w.w.w.w.w.w.w.w.w.w.w.w."
};
